X:1
T:England’s Lane, 77.77.77
T:England’s Lane, 77.77.77
T:English melody, arr. by Geoffrey T. Shaw, 1919
T:Public Domain Courtesy of the Cyber Hymnal™
C:English melody, arr. by Geoffrey T. Shaw, 1919
Z:Public Domain
Z:Courtesy of the Cyber Hymnal™
%%score ( 1 2 ) ( 3 4 )
L:1/8
Q:1/4=110
M:4/4
K:Bb
V:1 treble 
V:2 treble 
V:3 bass 
V:4 bass 
V:1
 [FB]2 ([Fd]>[Ec]) | [DB]2 [CF]2 D2 B,2 | [CF]4 [FB]2 [DF]2 | c2 (dc) [FA]2 [=EG]2 | %4
 [CF]4 [B,D]2 (G>^F) | [DG]2 [DA]2 [DB]2 [^CG]2 | [DA]4 [Dd]2 G2 | (ed) (cB) A3 [=FG] | %8
 G4 [FB]2 ([Dd]>[Ec]) | [FB]2 [CF]2 D2 B,2 | [CF]4 [B,B]2 [DF]2 | [B,G]2 (FE) [B,D]2 [A,C]2 | %12
 B,4 |] %13
V:2
 x4 | x4 D2 B,2 | x8 | x2 F2 x4 | x6 C2 | x8 | x6 G2 | G2 G2 G2 ^F- x | G4 x4 | x4 D2 B,2 | x8 | %11
 x2 C2 x4 | B,4 |] %13
V:3
 [B,D]2 [F,A,]2 | [G,B,]2 [A,C]2 B,2 [G,B,]2 | [F,A,]4 [D,B,]2 [B,,B,]2 | %3
 [A,,C]2 ([G,,B,][A,,C]) [B,,D]2 [C,G,]2 | [F,,A,]4 [G,,D,]2 [A,,D,]2 | %5
 [B,,D,]2 [D,^F,]2 G,2 [=E,G,]2 | (G,2 ^F,2) [B,,G,]2 [E,G,]2 | [C,C]2 [A,,E]2 [D,A,]2 [D,D]2 | %8
 [G,,B,]4 [D,B,]2 B,2 | [D,B,]2 [F,A,]2 B,2 [G,B,]2 | A,4 [D,F,]2 [B,,B,]2 | %11
 [E,G,]2 [C,G,]2 F,2 [F,,F,]2 | [B,,D,]4 |] %13
V:4
 x4 | x4 B,2 x2 | x8 | x8 | x8 | x4 G,2 x2 | D,4 x4 | x8 | x6 (B,,>C,) | x4 B,2 x2 | (F,2 E,2) x4 | %11
 x4 F,2 x2 | x4 |] %13

